storage/app/icons/tabler/filled/battery-2.svg

<!--
version: "2.4"
unicode: "f71f"
-->
<svg
  xmlns="http://www.w3.org/2000/svg"
  width="24"
  height="24"
  viewBox="0 0 24 24"
  fill="currentColor"
>
  <path d="M17 6a3 3 0 0 1 2.995 2.824l.005 .176v.086l.052 .019a1.5 1.5 0 0 1 .941 1.25l.007 .145v3a1.5 1.5 0 0 1 -.948 1.395l-.052 .018v.087a3 3 0 0 1 -2.824 2.995l-.176 .005h-11a3 3 0 0 1 -2.995 -2.824l-.005 -.176v-6a3 3 0 0 1 2.824 -2.995l.176 -.005h11zm-10 3a1 1 0 0 0 -1 1v4l.007 .117a1 1 0 0 0 1.993 -.117v-4l-.007 -.117a1 1 0 0 0 -.993 -.883zm3 0a1 1 0 0 0 -1 1v4l.007 .117a1 1 0 0 0 1.993 -.117v-4l-.007 -.117a1 1 0 0 0 -.993 -.883z" />
</svg>

<svg xmlns="http://www.w3.org/2000/svg" width="24" height="24" fill="currentColor" viewBox="0 0 24 24"><path d="M17 6a3 3 0 0 1 2.995 2.824L20 9v.086l.052.019a1.5 1.5 0 0 1 .941 1.25L21 10.5v3a1.5 1.5 0 0 1-.948 1.395l-.052.018V15a3 3 0 0 1-2.824 2.995L17 18H6a3 3 0 0 1-2.995-2.824L3 15V9a3 3 0 0 1 2.824-2.995L6 6zM7 9a1 1 0 0 0-1 1v4l.007.117A1 1 0 0 0 8 14v-4l-.007-.117A1 1 0 0 0 7 9m3 0a1 1 0 0 0-1 1v4l.007.117A1 1 0 0 0 11 14v-4l-.007-.117A1 1 0 0 0 10 9"/></svg>
